src/lib/packages/icons/src/assets/filled/receipt-list.svg

<svg xmlns="http://www.w3.org/2000/svg" width="24" height="24" fill="none"><path fill="currentColor" d="M17 3H7C5 3 4 4 4 6v12.621a1 1 0 0 0 1.6.8l1.359-1.019a1.501 1.501 0 0 1 1.961.139l2.019 2.019a1.5 1.5 0 0 0 2.121 0l2.019-2.019a1.5 1.5 0 0 1 1.961-.139l1.359 1.019a1 1 0 0 0 1.6-.8V6C20 4 19 3 17 3ZM8 13.75a.75.75 0 1 1 0-1.5.75.75 0 0 1 0 1.5Zm0-4a.75.75 0 1 1 0-1.5.75.75 0 0 1 0 1.5Zm8 4h-5a.75.75 0 0 1 0-1.5h5a.75.75 0 0 1 0 1.5Zm0-4h-5a.75.75 0 0 1 0-1.5h5a.75.75 0 0 1 0 1.5Z"/></svg>

<svg width="24" height="24" viewBox="0 0 24 24" fill="none" xmlns="http://www.w3.org/2000/svg">
<path d="M17 3H7C5 3 4 4 4 6V18.621C4 19.445 4.94098 19.915 5.59998 19.421L6.95898 18.402C7.55598 17.954 8.39204 18.014 8.92004 18.541L10.939 20.56C11.525 21.146 12.4751 21.146 13.0601 20.56L15.079 18.541C15.607 18.013 16.443 17.954 17.04 18.402L18.399 19.421C19.058 19.915 19.999 19.445 19.999 18.621V6C20 4 19 3 17 3ZM8 13.75C7.586 13.75 7.25 13.414 7.25 13C7.25 12.586 7.586 12.25 8 12.25C8.414 12.25 8.75 12.586 8.75 13C8.75 13.414 8.414 13.75 8 13.75ZM8 9.75C7.586 9.75 7.25 9.414 7.25 9C7.25 8.586 7.586 8.25 8 8.25C8.414 8.25 8.75 8.586 8.75 9C8.75 9.414 8.414 9.75 8 9.75ZM16 13.75H11C10.586 13.75 10.25 13.414 10.25 13C10.25 12.586 10.586 12.25 11 12.25H16C16.414 12.25 16.75 12.586 16.75 13C16.75 13.414 16.414 13.75 16 13.75ZM16 9.75H11C10.586 9.75 10.25 9.414 10.25 9C10.25 8.586 10.586 8.25 11 8.25H16C16.414 8.25 16.75 8.586 16.75 9C16.75 9.414 16.414 9.75 16 9.75Z" fill="currentColor"/>
</svg>
